Texture2D tex0: PREVIOUS;
SamplerState s0 <bool visible=false;string uiname="Sampler";> {Filter=MIN_MAG_MIP_LINEAR;AddressU=CLAMP;AddressV=CLAMP;};

float2 R:TARGETSIZE;
float Value = 1;

float4 pMain(float4 PosWVP:SV_POSITION,float2 x:TEXCOORD0):SV_TARGET{
	float4 color = tex0.SampleLevel(s0, x, 0);
	color *= Value;
    return color;
}

technique10 Main{pass P1{SetPixelShader(CompileShader(ps_4_0, pMain()));}}